X:478
T:
R:vals
S:Ur von Baumgartens samling, Visby.
O:Gotland, Visby
M:3/4
L:1/8
K:D
F>F|D2 D2 D2|D2 D2 D2|F4 D2|F4 D2|E2 G2 B2|e2 g2 b2|a^gaABc|d4::f>f|d>A F2 f>f|d>A F2 a>a|
aaaaaa|a4 AA|AF dddd|BG eeee|cA aaac|d4::fe|dcedcB|A2 AG F2|G2 EBAG|F2 D2 fe|dcedcB|A2 AG F2|
G2 E2 A2|D4::f>f|^A4 f>f|B4 f>f|b3 ^eee|f3 ^efe|f3 ^efe|f3 ^efe|f2 z2 z2|z2 z ^ef=e|dcedcB|
{B}A2 AG F2|{A}G2 EBAG|F2 D2 fe|dcedcB|{B}A2 AG F2|{A}G2 E2 A2|D4:|

